!!!COM:	Bach, Johann Sebastian
!!!CDT:	1685/02/21/-1750/07/28/
!!!OTL@@DE:	O Mensch, bewein dein' S&uuml;nde gro&szlig;
!!!SCT:	BWV 402
!!!PC#:	201
!!!AGN:	chorale
!!!ONB: Same as No. 306
**kern	**kern	**kern	**kern
*ICvox	*ICvox	*ICvox	*ICvox
*Ibass	*Itenor	*Ialto	*Isoprn
*I"Bass	*I"Tenor	*I"Alto	*I"Soprano
*>[A,A,B]	*>[A,A,B]	*>[A,A,B]	*>[A,A,B]
*>norep[A,B]	*>norep[A,B]	*>norep[A,B]	*>norep[A,B]
*>A	*>A	*>A	*>A
*	*oclefC4	*oclefC3	*oclefC1
*clefF4	*clefGv2	*clefG2	*clefG2
*k[b-e-a-]	*k[b-e-a-]	*k[b-e-a-]	*k[b-e-a-]
*E-:	*E-:	*E-:	*E-:
*M4/4	*M4/4	*M4/4	*M4/4
*met(c)	*met(c)	*met(c)	*met(c)
*MM100	*MM100	*MM100	*MM100
4E-	4G	4B-	4e-
=1	=1	=1	=1
8A-L	4A-	4.c	4e-
8GJ	.	.	.
4F	4A-	.	4f
.	.	16BLL	.
.	.	16cJJ	.
4BB	4G	4.d	8gL
.	.	.	8fJ
[4C	4G	.	4e-
.	.	16cLL	.
.	.	16dJJ	.
=2	=2	=2	=2
4C]	8cL	[4e-	4g
.	8B-XJ	.	.
4FF#	4A	8e-L]	4a
.	.	8dJ	.
4GG;	4G;	4d;	4b-X;
4G	4d	[4g	4b-
=3	=3	=3	=3
8CL	8e-L	8g]	4a-X
8DJ	8B-J	4f	.
4E-	4B-	.	4g
.	.	4e-	.
8AAL	8cL	.	4f
8BBJ	8GJ	8d	.
[4C	4G	8cL	8e-L
.	.	8dJ	8fJ
=4	=4	=4	=4
4C]	8cL	8e-L	4g
.	8B-J	8dJ	.
4FF	4c	4e-	4a
4BB-;	4B-;	4d;	4b-;
8FL	[4A-X	[4f	4cc
8E-J	.	.	.
=5	=5	=5	=5
8DL	8A-]	8fL]	4b-
8BB-	4G	16e-L	.
.	.	16dJJ	.
8C	.	8e-L	4a-X
8DJ	8F	[8B-J	.
8E-L	4.E-	8B-L]	4g
8D	.	16e-L	.
.	.	16dJJ	.
8C	.	[4e-	4a-
8BB-J	8B-	.	.
=6	=6	=6	=6
8AA-L	8cL	8e-L]	2f
8FFJ	8A-J	16dL	.
.	.	16cJJ	.
4BB-	8FL	4d	.
.	8B-J	.	.
4EE-;	4G;	4B-;	4e-;
=:|!	=:|!	=:|!	=:|!
*>B	*>B	*>B	*>B
8EE-L	8GL	8b-L	4ee-
8FFJ	8A-J	8a-J	.
=7	=7	=7	=7
4GG	4B-	4g	4ee-
4AA	[4c	4f	4ee-
8BB-L	8cL]	4f	4dd
8CJ	16B-L	.	.
.	16A-JJ	.	.
4D-	4G	4e-	4b-
=8	=8	=8	=8
8CL	4A-	8e-L	4cc
8BB-J	.	8d-J	.
4AA-X	4A-	4e-	4cc
4E-;	4B-;	4e-;	4g;
8CL	[4c	4g	4ee-
8BB-J	.	.	.
=9	=9	=9	=9
8AAL	8cL]	4f	4ee-
8GGJ	8B-J	.	.
4FF	4AnX	4f	4ee-
8BB-L	8B-L	4f	4dd
8CJ	8AJ	.	.
4D	[4B-	4f	4b-
=10	=10	=10	=10
4E-	8B-L]	4g	4cc
.	16AL	.	.
.	16GJJ	.	.
4F	4A	8fL	4cc
.	.	8e-J	.
4BB-;	4B-;	4d;	4b-;
[4E-	4B-	8e-L	8gL
.	.	8fJ	8a-XJ
=11	=11	=11	=11
8E-L]	4e-	4g	4b-
8D-J	.	.	.
8CL	4e-	4a-	4cc
8DJ	.	.	.
4E-	8e-	4g	4b-
.	4d-	.	.
4E	.	[4g	4g
.	8c	.	.
=12	=12	=12	=12
4F	4c	8gL]	2a-
.	.	16fL	.
.	.	16e-JJ	.
4BB	8dnXL	8fL	.
.	8fJ	8dJ	.
4C;	4c;	4e-;	4g;
[4D-	4A-	4f	4f
=13	=13	=13	=13
4D-]	4B-	4e-	4g
4C	4c	4e-	4a-
8BB-L	4dnX	4f	4b-
8AA-J	.	.	.
4GG	8DnXL	4g	4b-
.	8EJ	.	.
=14	=14	=14	=14
4FF	4F	8cL	4a-
.	.	8dJ	.
8GGL	4B-	[4e-X	4g
8AA-J	.	.	.
4BB-;	4B-;	8e-L]	4f;
.	.	8d;J	.
4B-	4d	4f	4b-
=15	=15	=15	=15
4A	4c	4f	4cc
4A-	4.B-	4f	4dd
4.G	.	8gL	4ee-
.	8c	8aJ	.
.	4d	[4b-	4dd
8F	.	.	.
=16	=16	=16	=16
4E	4G	4b-]	4cc
4F#	4d	4a	4cc
4G;	4d;	4g;	4b-;
[4A-X	4c	4e-	4e-
=17	=17	=17	=17
8A-L]	4B-	4d	4fnX
8G	.	.	.
8FnX	4.B-	4e-	4g
8E-XJ	.	.	.
8DL	.	8fL	4a-X
8BB-J	8F	8dJ	.
8E-L	8GL	8B-L	4g
8GGJ	8B-J	[8e-J	.
=18	=18	=18	=18
4AA-	8cL	8e-L]	2f
.	8A-J	16dL	.
.	.	16cJJ	.
4BB-	8FL	4d	.
.	16B-L	.	.
.	16A-JJ	.	.
4EE-;	4G;	4B-;	4e-;
==	==	==	==
*-	*-	*-	*-
!!!YOR1: 371 vierstimmige Choralges&auml;nge von Johann Sebastian Bach, 
!!!YOR2: 4th ed. by Alfred D&ouml;rffel (Leipzig: Breitkopf und H&auml;rtel, 
!!!YOR2: c.1875). 178 pp. Plate "V.A.10".  reprint: J.S. Bach, 371 Four-Part 
!!!YOR4: Chorales (New York: Associated Music Publishers, Inc., c.1940).
!!!SMS: B&H, 4th ed, Alfred D&ouml;rffel, c.1875, plate V.A.10
!!!EED:  Craig Stuart Sapp
!!!EEV:  2009/05/22
